src/actions/32/mail-tagged.svg

<svg xmlns="http://www.w3.org/2000/svg" viewBox="0 0 32 32">
  <defs id="defs3051">
    <style type="text/css" id="current-color-scheme">
      .ColorScheme-Text {
        color:#2e3440;
      }
      </style>
  </defs>
 <path 
     style="fill:currentColor;fill-opacity:1;stroke:none" 
     d="M 2 5 L 2 24.683594 L 2 27 L 19 27 L 19 26 L 3 26 L 3 25.111328 L 3.4296875 24.683594 L 12.785156 15.541016 L 16 18.683594 L 28.976562 6 L 29 6 L 29 16 L 30 16 L 30 5 L 2 5 z M 3 6 L 3.0234375 6 L 12.070312 14.841797 L 3 23.707031 L 3 6 z M 4.453125 6 L 27.546875 6 L 16 17.285156 L 4.453125 6 z M 20 17 L 20 22 L 25.390625 26.974609 L 29.974609 22.390625 L 25 17 L 20 17 z M 22.890625 18.640625 C 23.580625 18.640625 24.140625 19.200625 24.140625 19.890625 C 24.140625 20.580625 23.580625 21.140625 22.890625 21.140625 C 22.200625 21.140625 21.640625 20.580625 21.640625 19.890625 C 21.640625 19.200625 22.200625 18.640625 22.890625 18.640625 z "
     class="ColorScheme-Text"
     />
</svg>

<svg viewBox="0 0 32 32" xmlns="http://www.w3.org/2000/svg">
 <defs>
  <style type="text/css">.ColorScheme-Text {
        color:#2e3440;
      }</style>
 </defs>
 <path class="ColorScheme-Text" d="m2 5v19.684 2.3164h17v-1h-16v-0.88867l0.42969-0.42773 9.3555-9.1426 3.2148 3.1426 12.977-12.684h0.023438v10h1v-11h-28zm1 1h0.023438l9.0469 8.8418-9.0703 8.8652v-17.707zm1.4531 0h23.094l-11.547 11.285-11.547-11.285zm15.547 11v5l5.3906 4.9746 4.584-4.584-4.9746-5.3906h-5zm2.8906 1.6406c0.69 0 1.25 0.56 1.25 1.25s-0.56 1.25-1.25 1.25-1.25-0.56-1.25-1.25 0.56-1.25 1.25-1.25z" fill="currentColor"/>
</svg>
